assets/images/instagram.svg

<svg width="20" height="20" viewBox="0 0 20 20" fill="none" xmlns="http://www.w3.org/2000/svg">
<path fill-rule="evenodd" clip-rule="evenodd" d="M10.0009 0.400055C7.3937 0.400055 7.06649 0.411455 6.04248 0.458056C5.02047 0.504856 4.32287 0.666658 3.71246 0.90406C3.08105 1.14926 2.54545 1.47727 2.01184 2.01107C1.47784 2.54468 1.14983 3.08028 0.90383 3.71149C0.665827 4.32209 0.503826 5.0199 0.457825 6.04151C0.412025 7.06552 0.400024 7.39293 0.400024 10.0002C0.400024 12.6074 0.411625 12.9336 0.458025 13.9576C0.505026 14.9796 0.666827 15.6772 0.90403 16.2876C1.14943 16.919 1.47744 17.4546 2.01124 17.9882C2.54465 18.5222 3.08025 18.851 3.71126 19.0962C4.32207 19.3336 5.01987 19.4955 6.04168 19.5423C7.06569 19.5889 7.3927 19.6003 9.99973 19.6003C12.6072 19.6003 12.9334 19.5889 13.9574 19.5423C14.9794 19.4955 15.6778 19.3336 16.2886 19.0962C16.9198 18.851 17.4546 18.5222 17.988 17.9882C18.522 17.4546 18.85 16.919 19.096 16.2878C19.332 15.6772 19.494 14.9794 19.542 13.9578C19.588 12.9338 19.6 12.6074 19.6 10.0002C19.6 7.39293 19.588 7.06572 19.542 6.04171C19.494 5.0197 19.332 4.3221 19.096 3.71169C18.85 3.08028 18.522 2.54468 17.988 2.01107C17.454 1.47707 16.92 1.14906 16.288 0.90406C15.676 0.666658 14.978 0.504856 13.956 0.458056C12.932 0.411455 12.606 0.400055 9.99792 0.400055H10.0009ZM9.13967 2.13005C9.39528 2.12965 9.68048 2.13005 10.0009 2.13005C12.5641 2.13005 12.8679 2.13925 13.8801 2.18525C14.8161 2.22805 15.3241 2.38445 15.6625 2.51585C16.1105 2.68985 16.43 2.89785 16.7658 3.23386C17.1018 3.56986 17.3098 3.88986 17.4842 4.33787C17.6156 4.67587 17.7722 5.18388 17.8148 6.11989C17.8608 7.1319 17.8708 7.4359 17.8708 9.99793C17.8708 12.56 17.8608 12.864 17.8148 13.876C17.772 14.812 17.6156 15.32 17.4842 15.658C17.3102 16.106 17.1018 16.425 16.7658 16.7608C16.4298 17.0968 16.1107 17.3048 15.6625 17.4788C15.3245 17.6108 14.8161 17.7668 13.8801 17.8096C12.8681 17.8556 12.5641 17.8656 10.0009 17.8656C7.43746 17.8656 7.13365 17.8556 6.12164 17.8096C5.18563 17.7664 4.67763 17.61 4.33902 17.4786C3.89102 17.3046 3.57102 17.0966 3.23501 16.7606C2.89901 16.4246 2.69101 16.1054 2.51661 15.6572C2.3852 15.3192 2.2286 14.8112 2.186 13.8752C2.14 12.8632 2.1308 12.5592 2.1308 9.99553C2.1308 7.4319 2.14 7.1295 2.186 6.11749C2.2288 5.18148 2.3852 4.67347 2.51661 4.33507C2.69061 3.88706 2.89901 3.56706 3.23501 3.23106C3.57102 2.89505 3.89102 2.68705 4.33902 2.51265C4.67743 2.38065 5.18563 2.22465 6.12164 2.18165C7.00725 2.14165 7.35045 2.12965 9.13967 2.12765V2.13005ZM15.1253 3.72407C14.4893 3.72407 13.9733 4.23947 13.9733 4.87568C13.9733 5.51168 14.4893 6.02769 15.1253 6.02769C15.7613 6.02769 16.2774 5.51168 16.2774 4.87568C16.2774 4.23967 15.7613 3.72407 15.1253 3.72407ZM10.0009 5.07008C7.27831 5.07008 5.07089 7.2775 5.07089 10.0001C5.07089 12.7228 7.27831 14.9292 10.0009 14.9292C12.7236 14.9292 14.9302 12.7228 14.9302 10.0001C14.9302 7.2775 12.7236 5.07008 10.0009 5.07008ZM10.0009 6.80009C11.7681 6.80009 13.2009 8.23271 13.2009 10.0001C13.2009 11.7673 11.7681 13.2002 10.0009 13.2002C8.23349 13.2002 6.80087 11.7673 6.80087 10.0001C6.80087 8.23271 8.23349 6.80009 10.0009 6.80009Z" fill="white"/>
</svg>

<svg width="20" height="20" fill="none" xmlns="http://www.w3.org/2000/svg"><path fill-rule="evenodd" clip-rule="evenodd" d="M10 .4C7.395.4 7.067.411 6.043.458c-1.022.047-1.72.209-2.33.446a4.7 4.7 0 00-1.7 1.107 4.713 4.713 0 00-1.108 1.7c-.238.611-.4 1.309-.446 2.33C.412 7.067.4 7.394.4 10.002c0 2.606.012 2.933.058 3.957.047 1.022.209 1.72.446 2.33a4.704 4.704 0 001.107 1.7 4.7 4.7 0 001.7 1.108c.611.238 1.309.4 2.33.446 1.025.047 1.352.058 3.959.058s2.933-.011 3.957-.058c1.022-.047 1.72-.208 2.332-.446a4.697 4.697 0 001.699-1.108 4.713 4.713 0 001.108-1.7c.236-.61.398-1.309.446-2.33.046-1.024.058-1.35.058-3.958 0-2.607-.012-2.934-.058-3.958-.048-1.022-.21-1.72-.446-2.33a4.712 4.712 0 00-1.108-1.7 4.692 4.692 0 00-1.7-1.108c-.612-.237-1.31-.4-2.332-.446C12.932.411 12.606.4 9.998.4H10zm-.86 1.73H10c2.564 0 2.868.01 3.88.055.936.043 1.444.2 1.782.33a2.97 2.97 0 011.104.719c.336.336.544.656.718 1.104.132.338.288.846.33 1.782.047 1.012.057 1.316.057 3.878 0 2.562-.01 2.866-.056 3.878-.043.936-.2 1.444-.33 1.782a2.968 2.968 0 01-.72 1.103 2.97 2.97 0 01-1.103.718c-.338.132-.846.288-1.782.33-1.012.047-1.316.057-3.88.057-2.563 0-2.866-.01-3.878-.056-.936-.044-1.444-.2-1.783-.331a2.974 2.974 0 01-1.104-.718 2.975 2.975 0 01-.718-1.104c-.132-.338-.288-.846-.331-1.782-.046-1.012-.055-1.316-.055-3.88 0-2.563.009-2.865.055-3.878.043-.936.2-1.444.33-1.782.175-.448.383-.768.719-1.104a2.98 2.98 0 011.104-.718c.338-.132.847-.288 1.783-.331.885-.04 1.228-.052 3.018-.054v.002zm5.985 1.594a1.152 1.152 0 100 2.304 1.152 1.152 0 000-2.304zM10.001 5.07a4.93 4.93 0 100 9.86 4.93 4.93 0 000-9.86zm0 1.73a3.2 3.2 0 110 6.4 3.2 3.2 0 010-6.4z" fill="#fff"/></svg>
